X:1
T: Craigieburn Wood
C:
R:Jig
Q:180
K:D
M:6/8
L:1/16
|:AG|F3ED2 E2F2A2|B3cd2 A2F2D2|d3cB2 A2F2D2|E6 A4AG|
F3ED2 E2F2A2|B3cd2 A2F2D2|d3cB2 A2F2D2|E6 A4A2|
B2d2c2 d3ef2|e3dc2 c2B2A2|B2d2c2 d3ef2|e6 d4cd|
e3dc2 d3cB2|A2F2A2 d4dc|B3cd2 A2F2D2|E6 A4:|
